assets/img/braze_icons/annotation-x.svg

<svg fill="none" height="24" viewBox="0 0 24 24" width="24" xmlns="http://www.w3.org/2000/svg"><path clip-rule="evenodd" d="m16.2413 2h-8.4826c-.80496-.00001-1.46933-.00002-2.01052.04419-.5621.04593-1.07881.14449-1.56414.39179-.75265.38349-1.36457.99541-1.74806 1.74806-.2473.48533-.34586 1.00204-.39179 1.56414-.04421.54119-.0442 1.20554-.04419 2.01051v5.77561c-.00001.6698-.00001 1.2226.03087 1.6752.03202.4693.10055.9034.27361 1.3212.40598.9801 1.18468 1.7588 2.16479 2.1648.41781.1731.85191.2416 1.32119.2736.45261.0309 1.00548.0309 1.67527.0309h.03427c.53656 0 .64307.0063.72975.0268.1511.0356.29181.106.411.2054.06838.0571.13731.1386.45925.5678l1.4769 1.9692c.0934.1246.1989.2654.3005.3784.112.1245.2982.3079.5789.4171.3497.136.7377.136 1.0874 0 .2807-.1092.4669-.2926.5789-.4171.1016-.113.2071-.2538.3005-.3784l1.4769-1.9692c.3219-.4292.3909-.5107.4593-.5678.1191-.0994.2599-.1698.4109-.2054.0867-.0205.1932-.0268.7298-.0268h.0343c.6698 0 1.2226 0 1.6752-.0309.4693-.032.9034-.1005 1.3212-.2736.9801-.406 1.7588-1.1847 2.1648-2.1648.1731-.4178.2416-.8519.2736-1.3212.0309-.4526.0309-1.0054.0309-1.6752v-5.77562c0-.80496 0-1.46931-.0442-2.0105-.0459-.5621-.1445-1.07881-.3918-1.56414-.3835-.75265-.9954-1.36457-1.748-1.74806-.4854-.2473-1.0021-.34586-1.5642-.39179-.5412-.04421-1.2055-.0442-2.0105-.04419zm-7.44841 5.29289c.39053-.39052 1.02369-.39052 1.41421 0l1.7929 1.7929 1.7929-1.7929c.3905-.39052 1.0237-.39052 1.4142 0 .3905.39053.3905 1.02369 0 1.41422l-1.7929 1.79289 1.7929 1.7929c.3905.3905.3905 1.0237 0 1.4142s-1.0237.3905-1.4142 0l-1.7929-1.7929-1.7929 1.7929c-.39052.3905-1.02368.3905-1.41421 0-.39052-.3905-.39052-1.0237 0-1.4142l1.79291-1.7929-1.79291-1.79289c-.39052-.39053-.39052-1.02369 0-1.41422z" fill="#801ed7" fill-rule="evenodd"/></svg>

<svg width="24" height="24" viewBox="0 0 24 24" fill="none" xmlns="http://www.w3.org/2000/svg">
<path fill-rule="evenodd" clip-rule="evenodd" d="M16.2413 2H7.7587C6.95374 1.99999 6.28937 1.99998 5.74818 2.04419C5.18608 2.09012 4.66937 2.18868 4.18404 2.43598C3.43139 2.81947 2.81947 3.43139 2.43598 4.18404C2.18868 4.66937 2.09012 5.18608 2.04419 5.74818C1.99998 6.28937 1.99999 6.95372 2 7.75869V13.5343C1.99999 14.2041 1.99999 14.7569 2.03087 15.2095C2.06289 15.6788 2.13142 16.1129 2.30448 16.5307C2.71046 17.5108 3.48916 18.2895 4.46927 18.6955C4.88708 18.8686 5.32118 18.9371 5.79046 18.9691C6.24307 19 6.79594 19 7.46573 19H7.5C8.03656 19 8.14307 19.0063 8.22975 19.0268C8.38085 19.0624 8.52156 19.1328 8.64075 19.2322C8.70913 19.2893 8.77806 19.3708 9.1 19.8L10.5769 21.7692C10.6703 21.8938 10.7758 22.0346 10.8774 22.1476C10.9894 22.2721 11.1756 22.4555 11.4563 22.5647C11.806 22.7007 12.194 22.7007 12.5437 22.5647C12.8244 22.4555 13.0106 22.2721 13.1226 22.1476C13.2242 22.0346 13.3297 21.8938 13.4231 21.7692L14.9 19.8C15.2219 19.3708 15.2909 19.2893 15.3593 19.2322C15.4784 19.1328 15.6192 19.0624 15.7702 19.0268C15.8569 19.0063 15.9634 19 16.5 19H16.5343C17.2041 19 17.7569 19 18.2095 18.9691C18.6788 18.9371 19.1129 18.8686 19.5307 18.6955C20.5108 18.2895 21.2895 17.5108 21.6955 16.5307C21.8686 16.1129 21.9371 15.6788 21.9691 15.2095C22 14.7569 22 14.2041 22 13.5343V7.75868C22 6.95372 22 6.28937 21.9558 5.74818C21.9099 5.18608 21.8113 4.66937 21.564 4.18404C21.1805 3.43139 20.5686 2.81947 19.816 2.43598C19.3306 2.18868 18.8139 2.09012 18.2518 2.04419C17.7106 1.99998 17.0463 1.99999 16.2413 2ZM8.79289 7.29289C9.18342 6.90237 9.81658 6.90237 10.2071 7.29289L12 9.08579L13.7929 7.29289C14.1834 6.90237 14.8166 6.90237 15.2071 7.29289C15.5976 7.68342 15.5976 8.31658 15.2071 8.70711L13.4142 10.5L15.2071 12.2929C15.5976 12.6834 15.5976 13.3166 15.2071 13.7071C14.8166 14.0976 14.1834 14.0976 13.7929 13.7071L12 11.9142L10.2071 13.7071C9.81658 14.0976 9.18342 14.0976 8.79289 13.7071C8.40237 13.3166 8.40237 12.6834 8.79289 12.2929L10.5858 10.5L8.79289 8.70711C8.40237 8.31658 8.40237 7.68342 8.79289 7.29289Z" fill="#801ED7"/>
</svg>
